flaticon/constructions/vise-3.svg

<svg xmlns="http://www.w3.org/2000/svg" width="32" height="32" viewBox="0 0 24 24">
    <path d="M 23.601562 7.800781 L 22.800781 7.800781 L 22.800781 6.199219 C 23.238281 6.199219 23.601562 5.839844 23.601562 5.398438 L 23.601562 4.601562 C 23.601562 4.160156 23.238281 3.800781 22.800781 3.800781 L 22.039062 3.800781 C 21.601562 3.800781 21.238281 4.160156 21.238281 4.601562 L 21.238281 5.398438 C 21.238281 5.828125 21.578125 6.175781 22 6.199219 L 22 7.800781 L 21.199219 7.800781 C 20.960938 7.800781 20.800781 7.960938 20.800781 8.199219 L 20 8.199219 L 20 5.398438 C 20 4.519531 19.28125 3.800781 18.398438 3.800781 C 17.519531 3.800781 16.800781 4.519531 16.800781 5.398438 L 16.800781 8.199219 L 16.355469 8.199219 L 16.398438 7.839844 C 16.398438 7.640625 16.238281 7.441406 16.039062 7.398438 C 15.839844 7.398438 15.640625 7.558594 15.601562 7.761719 L 15.546875 8.199219 L 14.800781 8.199219 L 14.800781 7.398438 C 14.800781 7.160156 14.640625 7 14.398438 7 L 12.800781 7 C 12.558594 7 12.398438 7.160156 12.398438 7.398438 L 12.398438 11.398438 C 12.398438 11.640625 12.558594 11.800781 12.800781 11.800781 L 14.398438 11.800781 C 14.640625 11.800781 14.800781 11.640625 14.800781 11.398438 L 14.800781 10.601562 L 15.246094 10.601562 L 15.199219 10.960938 C 15.199219 11.160156 15.359375 11.359375 15.558594 11.398438 L 15.601562 11.398438 C 15.800781 11.398438 15.960938 11.238281 16 11.039062 L 16.054688 10.601562 L 16.800781 10.601562 L 16.800781 15 C 16.800781 15.238281 16.640625 15.398438 16.398438 15.398438 L 4.800781 15.398438 C 4.800781 15.320312 4.800781 15.199219 4.800781 15.121094 L 4.800781 10.601562 L 5.246094 10.601562 L 5.199219 10.960938 C 5.199219 11.160156 5.359375 11.359375 5.558594 11.398438 L 5.601562 11.398438 C 5.800781 11.398438 5.960938 11.238281 6 11.039062 L 6.054688 10.601562 L 6.84375 10.601562 L 6.800781 10.960938 C 6.800781 11.160156 6.960938 11.359375 7.160156 11.398438 L 7.199219 11.398438 C 7.398438 11.398438 7.558594 11.238281 7.601562 11.039062 L 7.65625 10.601562 L 8.398438 10.601562 L 8.398438 11.398438 C 8.398438 11.640625 8.558594 11.800781 8.800781 11.800781 L 10.398438 11.800781 C 10.640625 11.800781 10.800781 11.640625 10.800781 11.398438 L 10.800781 7.398438 C 10.800781 7.160156 10.640625 7 10.398438 7 L 8.800781 7 C 8.558594 7 8.398438 7.160156 8.398438 7.398438 L 8.398438 8.199219 L 7.953125 8.199219 L 8 7.839844 C 8 7.640625 7.839844 7.441406 7.640625 7.398438 C 7.441406 7.398438 7.238281 7.558594 7.199219 7.761719 L 7.144531 8.199219 L 6.355469 8.199219 L 6.398438 7.839844 C 6.398438 7.640625 6.238281 7.441406 6.039062 7.398438 C 5.839844 7.398438 5.640625 7.558594 5.601562 7.761719 L 5.542969 8.199219 L 4.800781 8.199219 L 4.800781 5.398438 C 4.800781 4.519531 4.078125 3.800781 3.199219 3.800781 C 2.320312 3.800781 1.601562 4.519531 1.601562 5.398438 L 1.601562 8.199219 L 1.199219 8.199219 C 0.519531 8.199219 0 8.71875 0 9.398438 C 0 10.078125 0.519531 10.601562 1.199219 10.601562 L 1.601562 10.601562 L 1.601562 18.199219 C 1.601562 19.320312 2.480469 20.199219 3.601562 20.199219 L 18 20.199219 C 19.121094 20.199219 20 19.320312 20 18.199219 L 20 10.601562 L 20.800781 10.601562 C 20.800781 10.839844 20.960938 11 21.199219 11 L 22 11 L 22 16.601562 C 21.578125 16.625 21.238281 16.972656 21.238281 17.398438 L 21.238281 18.199219 C 21.238281 18.640625 21.601562 19 22.039062 19 L 22.800781 19 C 23.238281 19 23.601562 18.640625 23.601562 18.199219 L 23.601562 17.398438 C 23.601562 16.960938 23.238281 16.601562 22.800781 16.601562 L 22.800781 11 L 23.601562 11 C 23.839844 11 24 10.839844 24 10.601562 L 24 8.199219 C 24 7.960938 23.839844 7.800781 23.601562 7.800781 Z M 22.039062 4.601562 L 22.839844 4.601562 L 22.839844 5.398438 L 22.039062 5.398438 Z M 22.839844 17.398438 L 22.839844 18.199219 L 22.039062 18.199219 L 22.039062 17.398438 Z M 14 11 L 13.199219 11 L 13.199219 7.800781 L 14 7.800781 Z M 14.800781 9.800781 L 14.800781 9 L 15.445312 9 L 15.34375 9.800781 Z M 16.15625 9.800781 L 16.253906 9 L 16.800781 9 L 16.800781 9.800781 Z M 9.199219 7.800781 L 10 7.800781 L 10 11 L 9.199219 11 Z M 8.398438 9 L 8.398438 9.800781 L 7.753906 9.800781 L 7.855469 9 Z M 7.046875 9 L 6.945312 9.800781 L 6.15625 9.800781 L 6.253906 9 Z M 5.445312 9 L 5.34375 9.800781 L 4.800781 9.800781 L 4.800781 9 Z M 1.199219 9.800781 C 0.960938 9.800781 0.800781 9.640625 0.800781 9.398438 C 0.800781 9.160156 0.960938 9 1.199219 9 L 1.601562 9 L 1.601562 9.800781 Z M 19.199219 18.199219 C 19.199219 18.878906 18.679688 19.398438 18 19.398438 L 3.601562 19.398438 C 2.921875 19.398438 2.398438 18.878906 2.398438 18.199219 L 2.398438 5.398438 C 2.398438 4.960938 2.761719 4.601562 3.199219 4.601562 C 3.640625 4.601562 4 4.960938 4 5.398438 L 4 15.121094 C 4 15.441406 4 15.761719 4.238281 16 C 4.359375 16.121094 4.558594 16.199219 4.800781 16.199219 L 16.398438 16.199219 C 17.078125 16.199219 17.601562 15.679688 17.601562 15 L 17.601562 5.398438 C 17.601562 4.960938 17.960938 4.601562 18.398438 4.601562 C 18.839844 4.601562 19.199219 4.960938 19.199219 5.398438 Z M 20 9.800781 L 20 9 L 20.800781 9 L 20.800781 9.800781 Z M 23.199219 10.199219 L 21.601562 10.199219 L 21.601562 8.601562 L 23.199219 8.601562 Z M 23.199219 10.199219"/>
</svg>

<svg xmlns="http://www.w3.org/2000/svg" width="32" height="32" viewBox="0 0 24 24">
    <path d="M23.602 7.8H22.8V6.2c.437 0 .8-.36.8-.802v-.796c0-.442-.363-.801-.8-.801h-.762c-.437 0-.8.36-.8.8v.797c0 .43.34.778.761.801v1.602h-.8c-.24 0-.4.16-.4.398H20V5.4c0-.88-.719-1.598-1.602-1.598-.878 0-1.597.719-1.597 1.597V8.2h-.446l.043-.36c0-.198-.16-.398-.359-.44-.2 0-.398.16-.437.363l-.055.437H14.8v-.8c0-.239-.16-.399-.403-.399h-1.597c-.242 0-.403.16-.403.398v4c0 .243.16.403.403.403h1.597c.243 0 .403-.16.403-.403v-.796h.445l-.047.359c0 .2.16.398.36.437h.043c.199 0 .359-.16.398-.359l.055-.437h.746V15c0 .238-.16.398-.403.398H4.801v-4.797h.445l-.047.36c0 .2.16.398.36.437h.043c.199 0 .359-.16.398-.359l.055-.437h.789l-.043.359c0 .2.16.398.36.437h.038c.2 0 .36-.16.403-.359l.054-.437h.742v.796c0 .243.16.403.403.403h1.597c.243 0 .403-.16.403-.403v-4c0-.238-.16-.398-.403-.398H8.801c-.242 0-.403.16-.403.398V8.2h-.445L8 7.84c0-.198-.16-.398-.36-.44a.47.47 0 0 0-.44.363l-.055.437h-.79l.043-.36c0-.198-.16-.398-.359-.44-.2 0-.398.16-.437.363l-.059.437h-.742V5.4c0-.88-.723-1.598-1.602-1.598-.879 0-1.597.719-1.597 1.597V8.2h-.403C.52 8.2 0 8.72 0 9.4c0 .68.52 1.203 1.2 1.203h.402v7.597c0 1.121.878 2 2 2H18c1.121 0 2-.879 2-2v-7.597h.8c0 .238.16.398.4.398h.8v5.602a.804.804 0 0 0-.762.796v.801c0 .442.364.801.801.801h.762c.437 0 .8-.36.8-.8v-.802a.804.804 0 0 0-.8-.796V11h.8c.239 0 .399-.16.399-.398V8.199c0-.238-.16-.398-.398-.398zm-1.563-3.198h.8v.796h-.8zm.8 12.796v.801h-.8v-.8zM14 11h-.8V7.8h.8zm.8-1.2V9h.645l-.101.8zm1.356 0l.098-.8h.547v.8zM9.2 7.8H10V11h-.8zM8.4 9v.8h-.645l.101-.8zM7.046 9l-.102.8h-.789l.098-.8zM5.445 9l-.101.8H4.8V9zM1.2 9.8c-.238 0-.398-.16-.398-.402C.8 9.16.96 9 1.199 9h.403v.8zm18 8.4c0 .679-.52 1.198-1.199 1.198H3.602A1.18 1.18 0 0 1 2.398 18.2V5.4a.801.801 0 0 1 1.602 0v9.722c0 .32 0 .64.238.879.121.121.32.2.563.2h11.597c.68 0 1.204-.52 1.204-1.2V5.398a.8.8 0 0 1 .796-.796c.442 0 .801.359.801.796zM20 9.8V9h.8v.8zm3.2.4h-1.598V8.601h1.597zm0 0"/>
</svg>
